X:1
T:[ID 2-52a]
T:[ID 2-52a]
T:Bezeichnung standardisiert: Menuett Men\"uet 11
T:Urheber unbekannt Datum in der hier transkribierten schriftlichen Quelle: 1767
C:Urheber unbekannt
C:Datum in der hier transkribierten schriftlichen Quelle: 1767
L:1/8
M:3/4
K:D
V:1 treble 
V:1
 D4 (3ABc | d2 A2 F2 | D4 (3FGA | d2 B2 G2 | D2 fd e2 | A2 ec d2 | cB A2 D2 | C6 :: A4 (3cde | %9
 f2 df e2 | A4 (3cde | e2 ce d2 |"^O)" B2 B2 (3BAG | A2 E2 D2 |"^O)" B2 B2 (3BAG | A2 E2 D2 | %16
 (3GFE D2 C2 | D6 :| %18

